private/icons/dark/network-server.svg

<svg viewBox="0 0 32 32" xmlns="http://www.w3.org/2000/svg"><g fill="#2485ce"><path d="m16 26.2a.79.79 0 0 1 -.8-.8v-4.1a.8.8 0 1 1 1.6 0v4.1a.74.74 0 0 1 -.8.8z"/><path d="m28.8 26.9h-25.6a.9.9 0 1 1 0-1.8h25.5a.9.9 0 0 1 .9.9.77.77 0 0 1 -.8.9z"/><path d="m19.9 27.6h-7.8a1 1 0 0 1 -1-1v-1.3a1 1 0 0 1 1-1h7.8a1.08 1.08 0 0 1 1 1v1.3a1 1 0 0 1 -1 1z"/><path d="m18.7 2.9h-.4v19h.4a2 2 0 0 0 2-2v-15a2 2 0 0 0 -2-2zm-5.4 0a2 2 0 0 0 -2 2v15a2 2 0 0 0 2 2h4v-19zm.8 17.5a1.5 1.5 0 1 1 1.5-1.5 1.54 1.54 0 0 1 -1.5 1.5z"/></g></svg>

<svg id="Layer_1" data-name="Layer 1" xmlns="http://www.w3.org/2000/svg" viewBox="0 0 32 32"><defs><style>.cls-1{fill:#2485ce;}</style></defs><path class="cls-1" d="M16,26.2a.79.79,0,0,1-.8-.8V21.3a.8.8,0,1,1,1.6,0v4.1A.74.74,0,0,1,16,26.2Z"/><path class="cls-1" d="M28.8,26.9H3.2a.9.9,0,1,1,0-1.8H28.7a.9.9,0,0,1,.9.9A.77.77,0,0,1,28.8,26.9Z"/><path class="cls-1" d="M19.9,27.6H12.1a1,1,0,0,1-1-1V25.3a1,1,0,0,1,1-1h7.8a1.08,1.08,0,0,1,1,1v1.3A1,1,0,0,1,19.9,27.6Z"/><path class="cls-1" d="M18.7,2.9h-.4v19h.4a2,2,0,0,0,2-2V4.9A2,2,0,0,0,18.7,2.9Zm-5.4,0a2,2,0,0,0-2,2v15a2,2,0,0,0,2,2h4V2.9Zm.8,17.5a1.5,1.5,0,1,1,1.5-1.5A1.54,1.54,0,0,1,14.1,20.4Z"/></svg>
